X: 1
T: UNNAMED POLKA No 4
O: from Joe Yates, Sofala, NSW
R: polka
Z: 2014 John Chambers <jc:trillian.mit.edu>
N: In a set for Laverock Galop
M: 2/4
L: 1/16
K: G
|: "G"D4 G3A | B2 B4 B2 | "D7"d2c2 A2c2 | "G"B6 d2 \
| "D7"d2c2 A2d2 | "G"d2B2 G2B2 | "D7"B2A2 E2F2 |
|[1 G2F2 E2^D2 |[2 "G"G4 G4 \
|: "G"B4 B3B | A2G2 G4 | D2G2 D2G2 | "C"F2E2 E4 |
|[1 "C"c4 c3c | "D7"B2A2 A4 | G2F2 E2F2 | "G"E2D2 DEFG \
:|[2 "C"e4 e3e | "D7"e2d2 d3e | d2c2 B2A2 | "G"G4 G4 |]
